!!!!SEGMENT: T455_Ber-w15p204m796-802.krn
!!!COM: Berg, Alban (Maria Johannes)
!!!OTL: Lulu, Unfinished Opera
!!!OMV: Act I, Scene 2
!!!OMV: Act I, Scene 2
!!!example: 455
!!!work: Ber-15
!!!AGN-sub: Opera
!!!OPR: Lulu, Unfinished Opera
!!!filename: T455_Ber-w15p204m796-802.krn
**kern	**dynam	**kern	**dynam	**kern	**dynam	**kern	**dynam	**kern	**text	**dynam	**kern	**text	**dynam	**kern	**text	**dynam	**kern	**kern	**dynam	**kern	**dynam	**kern	**dynam	**kern	**dynam	**kern	**dynam
*grp:A	*	*grp:A	*	*grp:A	*	*grp:A	*	*grp:A	*	*	*grp:B	*	*	*grp:B	*	*	*grp:B	*	*	*grp:B	*	*grp:A	*	*grp:A	*	*grp:A	*
*part12	*	*part11	*	*part10	*	*part9	*	*part8	*	*	*part7	*	*	*part6	*	*	*part5	*part5	*	*part4	*	*part3	*	*part2	*	*part1	*
*staff13	*	*staff12	*	*staff11	*	*staff10	*	*staff9	*	*	*staff8	*	*	*staff7	*	*	*staff6	*staff5	*	*staff4	*	*staff3	*	*staff2	*	*staff1	*
*ICstr	*	*ICstr	*	*ICstr	*	*ICstr	*	*ICvox	*	*	*ICvox	*	*	*ICvox	*	*	*ICklav	*	*	*ICww	*	*ICww	*	*ICww	*	*ICww	*
*Icello	*	*Iviola	*	*Ivioln	*	*Ivioln	*	*Iheltn	*	*	*Iheltn	*	*	*Idrmsp	*	*	*Ipiano	*	*	*Iclars	*	*Icangl	*	*Ioboe	*	*Iflt	*
*I"Violoncello	*	*I"Viola	*	*I"Violin II	*	*I"Violin I	*	*I"DR SCHÖN	*	*	*I"ALWA	*	*	*I"LULU	*	*	*I"Piano	*	*	*I"Clarinet in Bb 1	*	*I"English Horn	*	*I"Oboe 1	*	*I"Flute 1, 2	*
*I'vc	*	*I'vla	*	*I'vn	*	*I'vn	*	*I'SCHÖN	*	*	*I'ALWA	*	*	*I'LULU	*	*	*I'pf	*	*	*I'cl	*	*I'cor-en	*	*I'ob	*	*I'fl	*
*clefF4	*	*clefC3	*	*clefG2	*	*clefG2	*	*clefF4	*	*	*clefG2	*	*	*clefG2	*	*	*clefF4	*clefG2	*	*clefG2	*	*clefG2	*	*clefG2	*	*clefG2	*
*	*	*	*	*	*	*	*	*	*	*	*	*	*	*	*	*	*	*	*	*ITrd1c2	*	*ITrd4c7	*	*	*	*	*
*k[]	*	*k[]	*	*k[]	*	*k[]	*	*k[]	*	*	*k[]	*	*	*k[]	*	*	*k[]	*k[]	*	*k[b-e-]	*	*k[b-]	*	*k[]	*	*k[]	*
*	*	*	*	*	*	*	*	*	*	*	*	*	*	*	*	*	*	*	*	*	*	*	*	*	*	*	*
!!LO:TX:omd:tempo:a:t=[[quarter]=192]
*M2/4	*	*M2/4	*	*M2/4	*	*M2/4	*	*M2/4	*	*	*M2/4	*	*	*M2/4	*	*	*M2/4	*M2/4	*	*M2/4	*	*M2/4	*	*M2/4	*	*M2/4	*
=390(796)	=390(796)	=390(796)	=390(796)	=390(796)	=390(796)	=390(796)	=390(796)	=390(796)	=390(796)	=390(796)	=390(796)	=390(796)	=390(796)	=390(796)	=390(796)	=390(796)	=390(796)	=390(796)	=390(796)	=390(796)	=390(796)	=390(796)	=390(796)	=390(796)	=390(796)	=390(796)	=390(796)
*	*	*	*	*	*	*	*	*	*	*	*	*	*	*	*	*	*	*	*	*	*	*	*	*	*	*tremolo	*
!	!	!	!	!	!	!	!	!	!	!	!	!	!	!	!	!	!	!	!	!	!	!	!	!	!	!LO:TX:t=[[quarter]=192]	!
!	!LO:DY:ed=brack	!	!LO:DY:ed=brack	!	!LO:DY:ed=brack	!	!LO:DY:ed=brack	!	!	!	!LO:TX:a:t=[Sprechgesang]	!	!LO:DY:ed=brack	!	!	!	!	!	!LO:DY:ed=brack	!LO:TX:a:t=(m. Ges.)	!LO:DY:ed=brack	!	!	!	!	!	!LO:DY:ed=brack
4r'	p	8r	p	8A-X'L	p	4r	p	2r	.	.	6an	to-	p	2r	.	.	8.BB-X'^L	2ryy	mf >	6An~)j	mp	4r	.	4r	.	4.ccn 4.ffnOOO	p
.	.	.	.	.	.	.	.	.	.	.	.	.	.	.	.	.	.	.	.	.	.	.	.	.	.	.	.
.	.	.	.	.	.	.	.	.	.	.	.	.	.	.	.	.	.	.	.	.	.	.	.	.	.	.	.
.	.	.	.	.	.	.	.	.	.	.	.	.	.	.	.	.	.	.	.	.	.	.	.	.	.	.	.
.	.	8D-X'	.	8A-'J	.	.	.	.	.	.	.	.	.	.	.	.	.	.	.	.	.	.	.	.	.	.	.
.	.	.	.	.	.	.	.	.	.	.	.	.	.	.	.	.	.	.	.	.	.	.	.	.	.	.	.
.	.	.	.	.	.	.	.	.	.	.	6b-X	-ten-	.	.	.	.	.	.	]	6B-X~	<	.	.	.	.	.	.
*	*	*	*	*	*	*	*	*	*	*	*	*	*	*	*	*	*Xcol	*	*	*	*	*	*	*	*	*	*
.	.	.	.	.	.	.	.	.	.	.	.	.	.	.	.	.	16BBnJk	.	.	.	.	.	.	.	.	.	.
.	.	.	.	.	.	.	.	.	.	.	.	.	.	.	.	.	.	.	.	.	.	.	.	.	.	.	.
!	!	!	!	!	!	!	!	!	!	!	!	!	!	!	!	!	!	!	!	!	!	!	!	!	!	!	!
*	*	*	*	*	*	*	*	*	*	*	*	*	*	*	*	*	*	*	*	*	*	*rhaupt	*	*rhaupt	*	*	*
!	!	!	!	!	!	!	!	!	!	!	!	!	!	!	!	!	!	!	!	!	!	!	!	!	!	!	!
8BB-X'	.	4r	.	4r'	.	8gn'L	.	.	.	.	.	.	.	.	.	.	(24F#XLL/	.	p	.	.	8r	.	8r	.	.	.
.	.	.	.	.	.	.	.	.	.	.	.	.	.	.	.	.	.	.	.	.	.	.	.	.	.	.	.
.	.	.	.	.	.	.	.	.	.	.	.	.	.	.	.	.	24Bn	.	.	.	.	.	.	.	.	.	.
.	.	.	.	.	.	.	.	.	.	.	.	.	.	.	.	.	.	.	.	.	.	.	.	.	.	.	.
.	.	.	.	.	.	.	.	.	.	.	[6ccn	-bleich...	.	.	.	.	24f#>XJ	.	.	[6c~	[	.	.	.	.	.	.
.	.	.	.	.	.	.	.	.	.	.	.	.	.	.	.	.	.	.	.	.	.	.	.	.	.	.	.
*	*	*	*	*	*	*	*	*	*	*	*	*	*	*	*	*	*	*	*	*	*	*	*	*	*	*Xtremolo	*
8r	.	.	.	.	.	8gn'J	.	.	.	.	.	.	.	.	.	.	24bn>L	.	.	.	.	[8ff#X^	mf	[8bbn^	mf	8r	.
*	*	*	*	*	*	*	*	*	*	*	*	*	*	*	*	*	*clefG2	*	*	*	*	*	*	*	*	*	*
.	.	.	.	.	.	.	.	.	.	.	.	.	.	.	.	.	24ff#>	.	.	.	.	.	.	.	.	.	.
!	!	!	!	!	!	!	!	!	!	!	!	!	!	!	!	!	!LO:T:a	!	!	!	!	!	!	!	!	!	!
.	.	.	.	.	.	.	.	.	.	.	.	.	.	.	.	.	[24bbnJJ)	.	.	.	.	.	.	.	.	.	.
=391	=391	=391	=391	=391	=391	=391	=391	=391	=391	=391	=391	=391	=391	=391	=391	=391	=391	=391	=391	=391	=391	=391	=391	=391	=391	=391	=391
!	!	!	!	!	!	!	!	!LO:TX:a:t=[Sprechgesang]	!	!	!	!	!	!	!	!	!	!	!	!	!	!	!	!	!	!	!
8r	.	8D-'	.	8A-'	.	4r	.	4.En	Wal-	mf	6cc]	.	.	2r	.	.	2r	2r	.	6c]	>	8ff#]	.	8bb]	.	2r	.
8BB-X'	.	8D-'J	.	8r	.	.	.	.	.	.	.	.	.	.	.	.	.	.	.	.	]]	8r	.	8r	.	.	.
.	.	.	.	.	.	.	.	.	.	.	6r	.	.	.	.	.	.	.	.	6r	.	.	.	.	.	.	.
4r	.	4r'	.	8r	.	8gn'	.	.	.	.	.	.	.	.	.	.	.	.	.	.	.	8ff#X^	.	8bbn^	.	.	.
.	.	.	.	.	.	.	.	.	.	.	6r	.	.	.	.	.	.	.	.	6r	.	.	.	.	.	.	.
.	.	.	.	8A-'	.	8r	.	8Fn	-ter,	.	.	.	.	.	.	.	.	.	.	.	.	8r	.	8r	.	.	.
=392	=392	=392	=392	=392	=392	=392	=392	=392	=392	=392	=392	=392	=392	=392	=392	=392	=392	=392	=392	=392	=392	=392	=392	=392	=392	=392	=392
!	!	!	!	!	!	!	!	!	!	!	!	!	!	!LO:TX:a:t=[Sprechgesang]	!	!LO:DY:t=poco %s	!	!	!	!	!	!	!	!	!	!	!
8BB-X'L	.	8D-X'	.	4r	.	8r	.	4r	.	.	2r	.	.	3ddn	Gott	f	2r	2r	.	3dn	<	8r	.	8r	.	2r	.
8BB-'J	.	8r	.	.	.	8gn'	.	.	.	.	.	.	.	.	.	.	.	.	.	.	.	8ff#X^L	.	8bbn^L	.	.	.
4r'	.	8r	.	8A-X'L	.	4r	.	8cnL	Wal-	f	.	.	.	.	.	.	.	.	.	.	.	8ff#^J	.	8bb^J	.	.	.
.	.	.	.	.	.	.	.	.	.	.	.	.	.	[6een	er-	.	.	.	.	[6eX~	.	.	.	.	.	.	.
.	.	8D-'	.	8A-'J	.	.	.	8B-XJ	-ter!	.	.	.	.	.	.	.	.	.	.	.	.	8r	.	8r	.	.	.
!!LO:REH:t=800
=393	=393	=393	=393	=393	=393	=393	=393	=393	=393	=393	=393	=393	=393	=393	=393	=393	=393	=393	=393	=393	=393	=393	=393	=393	=393	=393	=393
!	!	!	!	!	!	!	!	!	!	!	!	!	!	!	!	!	!	!	!	!	!	!	!	!	!	!	!
8BB-X'	.	4r	.	4r	.	8gn'	.	2r	.	.	2r	.	.	6r	.	.	2r	2r	.	6e]	.	8r	.	8r	.	2r	.
!	!	!	!	!	!	!	!	!	!	!	!	!	!	!	!	!	!	!	!	!	!	!	!	!	!	!	!
8r	.	.	.	.	.	[4.g~	<	.	.	.	.	.	.	.	.	.	.	.	.	.	.	(4.ff#X^	< [	(4.bbn^	< [	.	.
.	.	.	.	.	.	.	.	.	.	.	.	.	.	6gg#X	-barm'	.	.	.	.	(6a-X	.	.	.	.	.	.	.
8r	.	8D-X'L	.	[4A-X~	<	.	.	.	.	.	.	.	.	.	.	.	.	.	.	.	.	.	.	.	.	.	.
.	.	.	.	.	.	.	.	.	.	.	.	.	.	6ee#XH	Dich...	.	.	.	.	6f	[	.	.	.	.	.	.
[8BB-~	<	[8D-~J	<	.	.	.	.	.	.	.	.	.	.	.	.	.	.	.	.	.	.	.	.	.	.	.	.
=394	=394	=394	=394	=394	=394	=394	=394	=394	=394	=394	=394	=394	=394	=394	=394	=394	=394	=394	=394	=394	=394	=394	=394	=394	=394	=394	=394
*grp:A	*	*grp:A	*	*grp:A	*	*grp:A	*	*grp:A	*	*	*grp:A	*	*	*grp:B	*	*	*grp:B	*	*	*grp:B	*	*grp:B	*	*grp:B	*	*grp:A	*
*	*	*	*	*	*	*	*	*	*	*	*	*	*	*	*	*	*	*	*	*rhaupt	*	*	*	*	*	*	*
!	!	!	!	!	!	!	!	!LO:TX:a:t=zu Lulu	!	!	!	!	!	!	!	!	!	!	!	!	!	!	!	!	!	!	!
8BB-L]	[	8D-L]	[	8A-L]	[	8gL]	[	8r	.	.	2r	.	.	8e#hN	.	.	2r	2r	.	8F^)	f	8F#X^)	f	8Bn^)	f	2r	.
*	*	*	*	*	*	*	*	*	*	*	*	*	*	*	*	*	*	*	*	*	*	*	*	*	*	*	*
!LO:TX:a:t=am Frosch	!	!LO:TX:a:t=am Frosch	!	!LO:TX:a:t=am Frosch	!	!LO:TX:a:t=am Frosch	!	!	!	!	!	!	!	!	!	!	!	!	!	!	!	!	!	!	!	!	!
8FFn^uJ	mp	8Dn^uJ	mp	8cn^uJ	mp	8gn^uJ	mf	8F#XL	Wo	.	.	.	.	8ryy	.	.	.	.	.	8r	.	8r	.	8r	.	.	.
[4FF^u	.	[4D^u	.	[4c^u	.	[4g^u	.	8Bn	ist	.	.	.	.	4ryy	.	.	.	.	.	8r	.	8r	.	8r	.	.	.
.	.	.	.	.	.	.	.	8c#XJ	das	.	.	.	.	.	.	.	.	.	.	8F-X^L	.	8F#^L	.	8B^L	.	.	.
=395	=395	=395	=395	=395	=395	=395	=395	=395	=395	=395	=395	=395	=395	=395	=395	=395	=395	=395	=395	=395	=395	=395	=395	=395	=395	=395	=395
8r	.	8r	.	8r	.	8r	.	[4c#X	Beil?	.	2r	.	.	8r	.	.	2r	2r	.	8E-X^J	.	8F#X^J	.	8Bn^J	.	2r	.
4FFn^u	.	4Dn^u	.	4cn^u	.	4gn^u	.	.	.	.	.	.	.	8bnL	Wenn	mf	.	.	.	8r	.	8r	.	8r	.	.	.
.	.	.	.	.	.	.	.	4r	.	.	.	.	.	8f#X	ei-	.	.	.	.	8r	.	8r	.	8r	.	.	.
8r	.	8r	.	8r	.	8r	.	.	.	.	.	.	.	8bnJ	-nes	.	.	.	.	[8E-^	.	[8F#^	.	[8B^	.	.	.
=396	=396	=396	=396	=396	=396	=396	=396	=396	=396	=396	=396	=396	=396	=396	=396	=396	=396	=396	=396	=396	=396	=396	=396	=396	=396	=396	=396
4FFn^u	.	4Dn^u	.	4cn^u	.	4gn^u	.	2r	.	.	4r	.	.	4cc#X	da	.	2r	2r	.	8E-]	.	8F#]	.	8B]	.	2r	.
.	.	.	.	.	.	.	.	.	.	.	.	.	.	.	.	.	.	.	.	8r^	.	8r^	.	8r^	.	.	.
8r	.	8r	.	8r	.	8r	.	.	.	.	8r	.	.	[4dd#X	ist...	.	.	.	.	8E-X^	.	8F#X^	.	8Bn^	.	.	.
8FF^	.	8D^	.	8c^	.	8g^	.	.	.	.	8fn	Er	mf	.	.	.	.	.	.	8r	.	8r	.	8r	.	.	.
=	=	=	=	=	=	=	=	=	=	=	=	=	=	=	=	=	=	=	=	=	=	=	=	=	=	=	=
*-	*-	*-	*-	*-	*-	*-	*-	*-	*-	*-	*-	*-	*-	*-	*-	*-	*-	*-	*-	*-	*-	*-	*-	*-	*-	*-	*-
!!!system-decoration: [(s1,s2,s3,s4)][({(s5,s6)})][(s7,s8,s9)][(s10,s11,s12,s13)]
!!!RDF**kern: O = tremolo
!!!RDF**kern: > = above
!!!RDF**kern: N = cue size
!!!CDT: 1885/02/09-1935/12/24
!!!CBL: Vienna, Austria
!!!CDL: Vienna, Austria
!!!CNT: Austrian
!!!OMD:
!!!AGN: Stage; Opera
!!!MCN: Denzler, Robert
!!!MDT: 1937/06/02
!!!MGN: unknown
!!!MLC: Zürich, Switzerland
!!!MPD: 1937
!!!MPN: Hadžić, Bahrija
!!!ODT: 1935
!!!PDT: 1936
!!!excerpt-start-measure: 390(796)
!!!excerpt-end-measure: 396(802)
!!!excerpt-start-time: 20:22
!!!excerpt-end-time: 20:28
!!!EEV: 2020/01/27
!!!EED2: Bryan Bell
!!!EEV2: 2022/12/06
!!!ONB: Converted from MusicXML on 2020/01/27!!!Xfilter: slurcheck
!!!Suter_Work_ID: Ber-15
!!!Suter_Example_Number: 455
!!!Suter_Example_ID: Ber-15/204/796-802
!!!Premiere_Location: Zürich,Switzerland
!!!Other_Tsigs: none
!!!Full_Unit_Duration: 20:42
!!!First_Publication_Year: 1936
!!!First_Public_Performance_Year: 1937
!!!Example_Total_Measures: 7
!!!Example_Timestamp_Duration: 6
!!!Example_Start_Tsig_Type: simple duple
!!!Example_Start_Tsig_Mean_Beat_Rate: 192
!!!Example_Start_Tsig_Beat_Rate: 192
!!!Example_Start_Tsig_Beat: quarter
!!!Example_Start_Tsig: 2/4
!!!Example_Start_Timestamp: 0:29
!!!Example_Start_Tempo_Expression: none
!!!Example_Start_Notated_Beat_Rate: [192]
!!!Example_Start_Notated_Beat: [quarter]
!!!Example_Start_Measure: 390(796)
!!!Example_Metadata_Validated: Y
!!!Example_End_Timestamp: 0:35
!!!Example_End_Measure: 396(802)
!!!Example_Dataset: T
!!!Editorial_Comments: Act I, Scene 2 begins on the written measure 407 on the following perusal score: https://www.universaledition.com/alban-berg-51/works/lulu-3480. Full Unit Duration calculated from Disc 1 Track 1 (17:04) to Disc 1 Track 3 (4:14) (https://ubc-nml3-naxosmusiclibrary-com.eu1.proxy.openathens.net/catalogue/item.asp?cid=9.80123-24). Example Start and End Time based on Disc 1 Track 3 \"Act I Scene 2 (conclusion) - Scene 3\" (https://ubc-nml3-naxosmusiclibrary-com.eu1.proxy.openathens.net/catalogue/item.asp?cid=9.80123-24).
!!!Death_Place: Vienna,Austria
!!!Death_Date: 24-Dec-1935
!!!Changing_Tsig: no
!!!Birth_Place: Vienna,Austria
!!!Birth_Date: 9-Feb-1885
!!!Audio_Example_Quarter_Note_Tempo:
!!!Audio_Example_Duration:
!!!RDF**kern: j = marked note, color="magenta", text="extra)"
